symbols/web/date_range/materialsymbolsrounded/date_range_wght200_24px.svg

<svg xmlns="http://www.w3.org/2000/svg" height="24" width="24"><path d="M8 13.875q-.3 0-.537-.225-.238-.225-.238-.525 0-.325.238-.55.237-.225.537-.225.3 0 .538.225.237.225.237.55 0 .3-.237.525-.238.225-.538.225Zm4 0q-.3 0-.537-.225-.238-.225-.238-.525 0-.325.238-.55.237-.225.537-.225.3 0 .538.225.237.225.237.55 0 .3-.237.525-.238.225-.538.225Zm4 0q-.3 0-.537-.225-.238-.225-.238-.525 0-.325.238-.55.237-.225.537-.225.3 0 .538.225.237.225.237.55 0 .3-.237.525-.238.225-.538.225ZM5.625 21q-.7 0-1.162-.462Q4 20.075 4 19.375V6.625q0-.7.463-1.162Q4.925 5 5.625 5h1.75V3.275q0-.2.162-.35.163-.15.388-.15t.375.15q.15.15.15.375V5h7.175V3.25q0-.2.137-.338.138-.137.363-.137.2 0 .35.137.15.138.15.363V5h1.75q.7 0 1.163.463.462.462.462 1.162v12.75q0 .7-.462 1.163-.463.462-1.163.462Zm0-1h12.75q.275 0 .45-.175t.175-.45v-8.75H5v8.75q0 .275.175.45t.45.175ZM5 9.625h14v-3q0-.275-.175-.45T18.375 6H5.625q-.275 0-.45.175T5 6.625Zm0 0V6v3.625Z"/></svg>

<svg xmlns="http://www.w3.org/2000/svg" height="24" width="24"><path d="M8 13.875Q7.7 13.875 7.463 13.65Q7.225 13.425 7.225 13.125Q7.225 12.8 7.463 12.575Q7.7 12.35 8 12.35Q8.3 12.35 8.538 12.575Q8.775 12.8 8.775 13.125Q8.775 13.425 8.538 13.65Q8.3 13.875 8 13.875ZM12 13.875Q11.7 13.875 11.463 13.65Q11.225 13.425 11.225 13.125Q11.225 12.8 11.463 12.575Q11.7 12.35 12 12.35Q12.3 12.35 12.538 12.575Q12.775 12.8 12.775 13.125Q12.775 13.425 12.538 13.65Q12.3 13.875 12 13.875ZM16 13.875Q15.7 13.875 15.463 13.65Q15.225 13.425 15.225 13.125Q15.225 12.8 15.463 12.575Q15.7 12.35 16 12.35Q16.3 12.35 16.538 12.575Q16.775 12.8 16.775 13.125Q16.775 13.425 16.538 13.65Q16.3 13.875 16 13.875ZM5.625 21Q4.925 21 4.463 20.538Q4 20.075 4 19.375V6.625Q4 5.925 4.463 5.463Q4.925 5 5.625 5H7.375V3.275Q7.375 3.075 7.537 2.925Q7.7 2.775 7.925 2.775Q8.15 2.775 8.3 2.925Q8.45 3.075 8.45 3.3V5H15.625V3.25Q15.625 3.05 15.762 2.912Q15.9 2.775 16.125 2.775Q16.325 2.775 16.475 2.912Q16.625 3.05 16.625 3.275V5H18.375Q19.075 5 19.538 5.463Q20 5.925 20 6.625V19.375Q20 20.075 19.538 20.538Q19.075 21 18.375 21ZM5.625 20H18.375Q18.65 20 18.825 19.825Q19 19.65 19 19.375V10.625H5V19.375Q5 19.65 5.175 19.825Q5.35 20 5.625 20ZM5 9.625H19V6.625Q19 6.35 18.825 6.175Q18.65 6 18.375 6H5.625Q5.35 6 5.175 6.175Q5 6.35 5 6.625ZM5 9.625V6.625Q5 6.35 5 6.175Q5 6 5 6Q5 6 5 6.175Q5 6.35 5 6.625V9.625Z"/></svg>
